;FLAVOR:Marlin
;TIME:21927
;Filament used: 17.2507m
;Layer height: 0.2
;MINX:31.5
;MINY:31.5
;MINZ:0.2
;MAXX:203.5
;MAXY:203.5
;MAXZ:3
;Generated with Cura_SteamEngine master
M140 S50
M105
M190 S50
M104 S200
M105
M109 S200
M82 ;absolute extrusion mode
; Ender 3 Custom Start G-code
G92 E0 ; Reset Extruder
G28 ; Home all axes
G1 Z2.0 F3000 ; Move Z Axis up little to prevent scratching of Heat Bed
G1 X0.1 Y20 Z0.3 F5000.0 ; Move to start position
G1 X0.1 Y200.0 Z0.3 F1500.0 E15 ; Draw the first line
G1 X0.4 Y200.0 Z0.3 F5000.0 ; Move to side a little
G1 X0.4 Y20 Z0.3 F1500.0 E30 ; Draw the second line
G92 E0 ; Reset Extruder
G1 Z2.0 F3000 ; Move Z Axis up little to prevent scratching of Heat Bed
G1 X5 Y20 Z0.3 F5000.0 ; Move over to prevent blob squish
G92 E0
G92 E0
G1 F2700 E-5
;LAYER_COUNT:15
;LAYER:0
M107
G0 F6000 X34.698 Y34.764 Z0.2
;TYPE:SKIRT
G1 F2700 E0
G1 F1200 X35.386 Y34.127 E0.03119
G1 X36.126 Y33.551 E0.06237
G1 X36.912 Y33.039 E0.09357
G1 X37.739 Y32.597 E0.12476
G1 X38.601 Y32.227 E0.15596
G1 X39.491 Y31.931 E0.18716
G1 X40.403 Y31.713 E0.21835
G1 X41.33 Y31.572 E0.24953
G1 X42.201 Y31.513 E0.27857
G1 X42.522 Y31.504 E0.28925
G1 X42.83 Y31.5 E0.29949
G1 X191.793 Y31.5 E5.25402
G1 X192.649 Y31.511 E5.2825
G1 X193.585 Y31.565 E5.31368
G1 X194.513 Y31.697 E5.34486
G1 X195.427 Y31.909 E5.37606
G1 X196.319 Y32.198 E5.40725
G1 X197.184 Y32.561 E5.43845
G1 X198.014 Y32.997 E5.46963
G1 X198.805 Y33.502 E5.50085
G1 X199.549 Y34.073 E5.53204
G1 X200.242 Y34.705 E5.56323
G1 X200.879 Y35.393 E5.59442
G1 X201.454 Y36.134 E5.62562
G1 X201.965 Y36.92 E5.6568
G1 X202.407 Y37.748 E5.68801
G1 X202.776 Y38.61 E5.7192
G1 X203.071 Y39.5 E5.75039
G1 X203.289 Y40.412 E5.78157
G1 X203.429 Y41.34 E5.81279
G1 X203.487 Y42.201 E5.84149
G1 X203.496 Y42.521 E5.85214
G1 X203.5 Y42.83 E5.86242
G1 X203.499 Y191.9 E10.8205
G1 X203.49 Y192.627 E10.84469
G1 X203.439 Y193.564 E10.8759
G1 X203.307 Y194.492 E10.90707
G1 X203.098 Y195.406 E10.93826
G1 X202.811 Y196.299 E10.96946
G1 X202.449 Y197.165 E11.00067
G1 X202.015 Y197.996 E11.03186
G1 X201.511 Y198.787 E11.06305
G1 X200.942 Y199.532 E11.09423
G1 X200.311 Y200.227 E11.12545
G1 X199.624 Y200.865 E11.15664
G1 X198.885 Y201.442 E11.18782
G1 X198.099 Y201.954 E11.21902
G1 X197.273 Y202.397 E11.25019
G1 X196.411 Y202.769 E11.28142
G1 X195.522 Y203.065 E11.31258
G1 X194.61 Y203.285 E11.34379
G1 X193.683 Y203.426 E11.37497
G1 X192.799 Y203.487 E11.40445
G1 X192.478 Y203.496 E11.41513
G1 X192.17 Y203.5 E11.42537
G1 X43.065 Y203.499 E16.38462
G1 X42.367 Y203.49 E16.40784
G1 X41.431 Y203.438 E16.43902
G1 X40.502 Y203.306 E16.47023
G1 X39.588 Y203.096 E16.50142
G1 X38.695 Y202.809 E16.53262
G1 X37.83 Y202.446 E16.56382
G1 X36.999 Y202.012 E16.595
G1 X36.208 Y201.508 E16.6262
G1 X35.463 Y200.938 E16.6574
G1 X34.769 Y200.307 E16.68859
G1 X34.132 Y199.62 E16.71975
G1 X33.555 Y198.88 E16.75096
G1 X33.043 Y198.094 E16.78216
G1 X32.6 Y197.267 E16.81337
G1 X32.229 Y196.406 E16.84455
G1 X31.933 Y195.516 E16.87575
G1 X31.714 Y194.604 E16.90694
G1 X31.573 Y193.677 E16.93813
G1 X31.513 Y192.788 E16.96776
G1 X31.504 Y192.455 E16.97884
G1 X31.5 Y192.158 E16.98872
G1 X31.501 Y43.025 E21.94891
G1 X31.51 Y42.36 E21.97103
G1 X31.563 Y41.424 E22.00221
G1 X31.695 Y40.495 E22.03342
G1 X31.906 Y39.581 E22.06462
G1 X32.194 Y38.689 E22.09579
G1 X32.557 Y37.824 E22.12699
G1 X32.992 Y36.993 E22.15819
G1 X33.496 Y36.203 E22.18936
G1 X34.066 Y35.458 E22.22056
G1 X34.698 Y34.764 E22.25178
G0 F6000 X35.089 Y34.939
G1 F1200 X35.774 Y34.323 E22.28242
G1 X36.51 Y33.77 E22.31304
G1 X37.291 Y33.282 E22.34367
G1 X38.111 Y32.864 E22.37428
G1 X38.965 Y32.519 E22.40491
G1 X39.845 Y32.249 E22.43553
G1 X40.745 Y32.057 E22.46614
G1 X41.659 Y31.943 E22.49677
G1 X42.212 Y31.913 E22.51519
G1 X42.533 Y31.904 E22.52587
G1 X42.83 Y31.9 E22.53575
G1 X191.793 Y31.9 E27.49028
G1 X192.643 Y31.911 E27.51855
G1 X193.562 Y31.964 E27.54917
G1 X194.473 Y32.097 E27.57979
G1 X195.369 Y32.308 E27.61041
G1 X196.243 Y32.596 E27.64102
G1 X197.09 Y32.959 E27.67166
G1 X197.901 Y33.394 E27.70227
G1 X198.671 Y33.898 E27.73288
G1 X199.395 Y34.467 E27.76351
G1 X200.067 Y35.097 E27.79415
G1 X200.682 Y35.782 E27.82477
G1 X201.235 Y36.518 E27.85538
G1 X201.722 Y37.299 E27.886
G1 X202.139 Y38.12 E27.91662
G1 X202.484 Y38.974 E27.94726
G1 X202.753 Y39.854 E27.97786
G1 X202.945 Y40.755 E28.0085
G1 X203.058 Y41.668 E28.0391
G1 X203.087 Y42.212 E28.05722
G1 X203.096 Y42.532 E28.06787
G1 X203.1 Y42.83 E28.07778
G1 X203.099 Y191.895 E33.0357
G1 X203.09 Y192.622 E33.05989
G1 X203.039 Y193.541 E33.0905
G1 X202.908 Y194.453 E33.12114
G1 X202.698 Y195.349 E33.15175
G1 X202.412 Y196.224 E33.18237
G1 X202.051 Y197.071 E33.21299
G1 X201.617 Y197.883 E33.24362
G1 X201.115 Y198.655 E33.27424
G1 X200.547 Y199.38 E33.30488
G1 X199.919 Y200.053 E33.33549
G1 X199.235 Y200.669 E33.36611
G1 X198.5 Y201.223 E33.39672
G1 X197.72 Y201.712 E33.42734
G1 X196.9 Y202.131 E33.45797
G1 X196.047 Y202.477 E33.48858
G1 X195.167 Y202.748 E33.51921
G1 X194.267 Y202.941 E33.54982
G1 X193.353 Y203.056 E33.58046
G1 X192.788 Y203.087 E33.59928
G1 X192.467 Y203.096 E33.60996
G1 X192.17 Y203.1 E33.61984
G1 X43.07 Y203.099 E38.57893
G1 X42.372 Y203.09 E38.60215
G1 X41.453 Y203.038 E38.63276
G1 X40.542 Y202.907 E38.66337
G1 X39.646 Y202.697 E38.69398
G1 X38.771 Y202.41 E38.72461
G1 X37.924 Y202.048 E38.75525
G1 X37.112 Y201.614 E38.78587
G1 X36.341 Y201.112 E38.81647
G1 X35.616 Y200.544 E38.8471
G1 X34.943 Y199.915 E38.87774
G1 X34.328 Y199.231 E38.90833
G1 X33.774 Y198.496 E38.93895
G1 X33.286 Y197.715 E38.96958
G1 X32.867 Y196.895 E39.00021
G1 X32.521 Y196.042 E39.03082
G1 X32.251 Y195.162 E39.06144
G1 X32.058 Y194.261 E39.09208
G1 X31.944 Y193.348 E39.12269
G1 X31.913 Y192.777 E39.14171
G1 X31.904 Y192.444 E39.15279
G1 X31.9 Y192.158 E39.1623
G1 X31.901 Y43.031 E44.12228
G1 X31.91 Y42.366 E44.1444
G1 X31.962 Y41.446 E44.17505
G1 X32.094 Y40.535 E44.20567
G1 X32.305 Y39.639 E44.23628
G1 X32.592 Y38.764 E44.26691
G1 X32.955 Y37.918 E44.29753
G1 X33.389 Y37.106 E44.32815
G1 X33.892 Y36.335 E44.35877
G1 X34.461 Y35.611 E44.3894
G1 X35.089 Y34.939 E44.41999
G0 F6000 X35.481 Y35.117
G1 F1200 X36.162 Y34.524 E44.45002
G1 X36.894 Y33.994 E44.48008
G1 X37.669 Y33.531 E44.51011
G1 X38.482 Y33.138 E44.54014
G1 X39.327 Y32.818 E44.5702
G1 X40.196 Y32.575 E44.60021
G1 X41.084 Y32.409 E44.63025
G1 X42.223 Y32.313 E44.66827
G1 X42.544 Y32.304 E44.67895
G1 X42.83 Y32.3 E44.68847
G1 X191.793 Y32.3 E49.643
G1 X192.637 Y32.311 E49.67107
G1 X193.539 Y32.364 E49.70112
G1 X194.432 Y32.496 E49.73115
G1 X195.31 Y32.707 E49.76118
G1 X196.166 Y32.995 E49.79122
G1 X196.993 Y33.357 E49.82124
G1 X197.785 Y33.792 E49.8513
G1 X198.536 Y34.294 E49.88134
G1 X199.239 Y34.861 E49.91138
G1 X199.889 Y35.488 E49.94142
G1 X200.481 Y36.17 E49.97146
G1 X201.011 Y36.901 E50.00149
G1 X201.473 Y37.677 E50.03153
G1 X201.866 Y38.49 E50.06156
G1 X202.184 Y39.335 E50.09159
G1 X202.427 Y40.205 E50.12163
G1 X202.592 Y41.093 E50.15167
G1 X202.687 Y42.223 E50.18939
G1 X202.696 Y42.543 E50.20004
G1 X202.7 Y42.83 E50.20958
G1 X202.699 Y191.89 E55.16734
G1 X202.69 Y192.617 E55.19152
G1 X202.639 Y193.519 E55.22157
G1 X202.508 Y194.413 E55.25162
G1 X202.299 Y195.291 E55.28164
G1 X202.013 Y196.148 E55.31169
G1 X201.652 Y196.976 E55.34173
G1 X201.22 Y197.768 E55.37174
G1 X200.719 Y198.52 E55.40179
G1 X200.153 Y199.224 E55.43184
G1 X199.528 Y199.875 E55.46185
G1 X198.847 Y200.469 E55.49191
G1 X198.116 Y201 E55.52196
G1 X197.342 Y201.464 E55.55197
G1 X196.529 Y201.858 E55.58202
G1 X195.685 Y202.178 E55.61204
G1 X194.815 Y202.423 E55.64211
G1 X193.928 Y202.589 E55.67212
G1 X192.777 Y202.687 E55.71054
G1 X192.456 Y202.696 E55.72122
G1 X192.17 Y202.7 E55.73074
G1 X43.075 Y202.699 E60.68966
G1 X42.377 Y202.69 E60.71287
G1 X41.476 Y202.639 E60.74289
G1 X40.582 Y202.507 E60.77295
G1 X39.704 Y202.298 E60.80296
G1 X38.847 Y202.011 E60.83302
G1 X38.02 Y201.65 E60.86304
G1 X37.227 Y201.217 E60.89309
G1 X36.476 Y200.716 E60.92311
G1 X35.772 Y200.15 E60.95316
G1 X35.121 Y199.524 E60.9832
G1 X34.528 Y198.843 E61.01323
G1 X33.998 Y198.112 E61.04326
G1 X33.534 Y197.337 E61.0733
G1 X33.14 Y196.524 E61.10335
G1 X32.82 Y195.68 E61.13337
G1 X32.576 Y194.81 E61.16343
G1 X32.41 Y193.922 E61.19347
G1 X32.313 Y192.767 E61.23202
G1 X32.304 Y192.434 E61.2431
G1 X32.3 Y192.158 E61.25229
G1 X32.301 Y43.036 E66.2121
G1 X32.31 Y42.371 E66.23422
G1 X32.362 Y41.469 E66.26427
G1 X32.494 Y40.576 E66.2943
G1 X32.704 Y39.698 E66.32432
G1 X32.991 Y38.841 E66.35438
G1 X33.353 Y38.014 E66.38441
G1 X33.786 Y37.222 E66.41443
G1 X34.288 Y36.471 E66.44448
G1 X34.855 Y35.767 E66.47454
G1 X35.481 Y35.117 E66.50456
G1 F2700 E61.50456
;MESH:tor-top-01.stl
G0 F6000 X53.351 Y180.326
G0 X54.055 Y179.041
G0 X55.433 Y180.702
G0 X55.832 Y181.646
G0 X55.935 Y182.666
G0 X55.773 Y183.479
G0 X55.374 Y184.67
;TYPE:WALL-INNER
G1 F2700 E66.50456
G1 F1200 X55.575 Y184.372 E66.51651
G1 X55.744 Y184.061 E66.52828
G1 X55.884 Y183.727 E66.54033
G1 X55.989 Y183.388 E66.55213
G1 X56.06 Y183.035 E66.56411
G1 X56.096 Y182.675 E66.57614
G1 X56.096 Y182.314 E66.58815
G1 X56.059 Y181.958 E66.60005
G1 X55.988 Y181.606 E66.612
G1 X55.881 Y181.264 E66.62392
G1 X55.743 Y180.934 E66.63581
G1 X55.569 Y180.617 E66.64784
G1 X55.366 Y180.322 E66.65975
G1 X55.136 Y180.047 E66.67167
G1 X54.877 Y179.796 E66.68367
G1 X54.597 Y179.573 E66.69558
G1 X54.296 Y179.38 E66.70747
G1 X53.977 Y179.215 E66.71941
G1 X53.641 Y179.085 E66.7314
G1 X53.296 Y178.988 E66.74332
G1 X52.942 Y178.927 E66.75526
G1 X52.585 Y178.901 E66.76717
G1 X52.225 Y178.909 E66.77915
G1 X51.868 Y178.956 E66.79112
G1 X51.519 Y179.036 E66.80303
G1 X51.181 Y179.15 E66.81489
G1 X50.852 Y179.298 E66.82689
G1 X50.54 Y179.479 E66.83889
G1 X50.251 Y179.689 E66.85077
G1 X49.982 Y179.926 E66.8627
G1 X49.737 Y180.192 E66.87472
G1 X49.523 Y180.475 E66.88653
G1 X49.335 Y180.782 E66.8985
G1 X49.179 Y181.108 E66.91052
G1 X49.058 Y181.445 E66.92243
G1 X48.969 Y181.793 E66.93438
G1 X48.917 Y182.147 E66.94628
G1 X48.899 Y182.505 E66.9582
G1 X48.918 Y182.865 E66.97019
G1 X48.972 Y183.218 E66.98207
G1 X49.061 Y183.567 E66.99404
G1 X49.185 Y183.903 E67.00596
G1 X49.339 Y184.227 E67.01789
G1 X49.529 Y184.534 E67.0299
G1 X49.745 Y184.819 E67.04179
G1 X49.99 Y185.083 E67.05377
G1 X50.26 Y185.318 E67.06568
G1 X50.55 Y185.526 E67.07755
G1 X50.856 Y185.704 E67.08932
G1 X51.19 Y185.854 E67.1015
G1 X51.53 Y185.968 E67.11342
G1 X51.875 Y186.045 E67.12518
G1 X52.231 Y186.091 E67.13712
G1 X52.591 Y186.099 E67.1491
G1 X52.949 Y186.072 E67.16104
G1 X53.306 Y186.009 E67.1731
G1 X53.647 Y185.914 E67.18487
G1 X53.981 Y185.782 E67.19681
G1 X54.302 Y185.618 E67.2088
G1 X54.607 Y185.42 E67.2209
G1 X54.886 Y185.196 E67.2328
G1 X55.143 Y184.944 E67.24477
G1 X55.374 Y184.67 E67.25669
G0 F6000 X55.054 Y184.428
;TYPE:WALL-OUTER
G1 F1200 X55.233 Y184.164 E67.2673
G1 X55.383 Y183.888 E67.27775
G1 X55.508 Y183.59 E67.28849
G1 X55.601 Y183.289 E67.29897
G1 X55.664 Y182.976 E67.30959
G1 X55.696 Y182.655 E67.32032
G1 X55.696 Y182.335 E67.33096
G1 X55.663 Y182.018 E67.34156
G1 X55.6 Y181.705 E67.35218
G1 X55.505 Y181.401 E67.36278
G1 X55.382 Y181.108 E67.37335
G1 X55.228 Y180.827 E67.384
G1 X55.047 Y180.564 E67.39462
G1 X54.843 Y180.32 E67.4052
G1 X54.613 Y180.097 E67.41586
G1 X54.364 Y179.899 E67.42644
G1 X54.096 Y179.727 E67.43703
G1 X53.812 Y179.58 E67.44766
G1 X53.515 Y179.465 E67.45826
G1 X53.207 Y179.379 E67.46889
G1 X52.893 Y179.324 E67.4795
G1 X52.575 Y179.301 E67.4901
G1 X52.256 Y179.308 E67.50071
G1 X51.939 Y179.35 E67.51135
G1 X51.628 Y179.421 E67.52196
G1 X51.327 Y179.523 E67.53253
G1 X51.035 Y179.654 E67.54317
G1 X50.759 Y179.815 E67.5538
G1 X50.501 Y180.002 E67.5644
G1 X50.262 Y180.212 E67.57498
G1 X50.045 Y180.448 E67.58564
G1 X49.854 Y180.701 E67.59619
G1 X49.687 Y180.973 E67.6068
G1 X49.549 Y181.262 E67.61746
G1 X49.441 Y181.562 E67.62806
G1 X49.362 Y181.872 E67.6387
G1 X49.316 Y182.186 E67.64926
G1 X49.3 Y182.505 E67.65988
G1 X49.316 Y182.825 E67.67054
G1 X49.364 Y183.138 E67.68107
G1 X49.443 Y183.448 E67.69171
G1 X49.554 Y183.747 E67.70232
G1 X49.691 Y184.035 E67.71292
G1 X49.859 Y184.307 E67.72356
G1 X50.052 Y184.561 E67.73417
G1 X50.269 Y184.795 E67.74478
G1 X50.509 Y185.004 E67.75537
G1 X50.768 Y185.19 E67.76597
G1 X51.039 Y185.348 E67.77641
G1 X51.336 Y185.481 E67.78723
G1 X51.638 Y185.582 E67.79782
G1 X51.945 Y185.651 E67.80829
G1 X52.261 Y185.692 E67.81888
G1 X52.58 Y185.699 E67.8295
G1 X52.899 Y185.675 E67.84014
G1 X53.217 Y185.619 E67.85088
G1 X53.519 Y185.534 E67.86131
G1 X53.816 Y185.417 E67.87193
G1 X54.101 Y185.271 E67.88258
G1 X54.372 Y185.095 E67.89333
G1 X54.62 Y184.896 E67.9039
G1 X54.849 Y184.672 E67.91456
G1 X55.054 Y184.428 E67.92516
G0 F6000 X55.405 Y184.693
G1 F2700 E62.92516
G0 F6000 X55.901 Y183.011
G0 X55.9 Y181.982
G0 X55.657 Y181.19
G0 X55.003 Y179.653
G0 X53.966 Y180.683
G0 X53.027 Y54.776
G0 X53.349 Y56.195
G0 X53.647 Y55.914
;TYPE:WALL-INNER
G1 F2700 E67.92516
G1 F1200 X53.981 Y55.782 E67.9371
G1 X54.302 Y55.618 E67.94909
G1 X54.607 Y55.42 E67.96118
G1 X54.886 Y55.196 E67.97308
G1 X55.143 Y54.944 E67.98506
G1 X55.374 Y54.67 E67.99698
G1 X55.575 Y54.372 E68.00893
G1 X55.744 Y54.061 E68.0207
G1 X55.884 Y53.727 E68.03275
G1 X55.989 Y53.388 E68.04455
G1 X56.06 Y53.035 E68.05653
G1 X56.096 Y52.675 E68.06856
G1 X56.096 Y52.314 E68.08057
G1 X56.059 Y51.958 E68.09247
G1 X55.988 Y51.606 E68.10442
G1 X55.881 Y51.264 E68.11634
G1 X55.743 Y50.934 E68.12823
G1 X55.569 Y50.617 E68.14026
G1 X55.366 Y50.322 E68.15217
G1 X55.136 Y50.047 E68.16409
G1 X54.877 Y49.796 E68.17609
G1 X54.597 Y49.573 E68.188
G1 X54.296 Y49.38 E68.19989
G1 X53.977 Y49.215 E68.21183
G1 X53.641 Y49.085 E68.22382
G1 X53.296 Y48.988 E68.23574
G1 X52.942 Y48.927 E68.24768
G1 X52.585 Y48.901 E68.25959
G1 X52.225 Y48.909 E68.27157
G1 X51.868 Y48.956 E68.28354
G1 X51.519 Y49.036 E68.29545
G1 X51.181 Y49.15 E68.30731
G1 X50.852 Y49.298 E68.31931
G1 X50.54 Y49.479 E68.33131
G1 X50.251 Y49.689 E68.34319
G1 X49.982 Y49.926 E68.35512
G1 X49.737 Y50.192 E68.36714
G1 X49.523 Y50.475 E68.37895
G1 X49.335 Y50.782 E68.39092
G1 X49.179 Y51.108 E68.40294
G1 X49.058 Y51.445 E68.41485
G1 X48.969 Y51.793 E68.4268
G1 X48.917 Y52.147 E68.4387
G1 X48.899 Y52.505 E68.45062
G1 X48.918 Y52.865 E68.46261
G1 X48.972 Y53.218 E68.47449
G1 X49.061 Y53.567 E68.48646
G1 X49.185 Y53.903 E68.49838
G1 X49.339 Y54.227 E68.51031
G1 X49.529 Y54.534 E68.52232
G1 X49.745 Y54.819 E68.53421
G1 X49.99 Y55.083 E68.54619
G1 X50.26 Y55.318 E68.5581
G1 X50.55 Y55.526 E68.56997
G1 X50.856 Y55.704 E68.58174
G1 X51.19 Y55.854 E68.59392
G1 X51.53 Y55.968 E68.60584
G1 X51.875 Y56.045 E68.6176
G1 X52.231 Y56.091 E68.62954
G1 X52.591 Y56.099 E68.64152
G1 X52.949 Y56.072 E68.65346
G1 X53.306 Y56.009 E68.66552
G1 X53.647 Y55.914 E68.67729
G0 F6000 X53.519 Y55.534
;TYPE:WALL-OUTER
G1 F1200 X53.816 Y55.417 E68.68791
G1 X54.101 Y55.271 E68.69856
G1 X54.372 Y55.095 E68.7093
G1 X54.62 Y54.896 E68.71988
G1 X54.849 Y54.672 E68.73053
G1 X55.054 Y54.428 E68.74113
G1 X55.233 Y54.164 E68.75174
G1 X55.383 Y53.888 E68.76219
G1 X55.508 Y53.59 E68.77294
G1 X55.601 Y53.289 E68.78342
G1 X55.664 Y52.976 E68.79404
G1 X55.696 Y52.655 E68.80477
G1 X55.696 Y52.335 E68.81541
G1 X55.663 Y52.018 E68.82601
G1 X55.6 Y51.705 E68.83663
G1 X55.505 Y51.401 E68.84722
G1 X55.382 Y51.108 E68.85779
G1 X55.228 Y50.827 E68.86845
G1 X55.047 Y50.564 E68.87907
G1 X54.843 Y50.32 E68.88965
G1 X54.613 Y50.097 E68.9003
G1 X54.364 Y49.899 E68.91088
G1 X54.096 Y49.727 E68.92147
G1 X53.812 Y49.58 E68.93211
G1 X53.515 Y49.465 E68.9427
G1 X53.207 Y49.379 E68.95334
G1 X52.893 Y49.324 E68.96394
G1 X52.575 Y49.301 E68.97455
G1 X52.256 Y49.308 E68.98516
G1 X51.939 Y49.35 E68.99579
G1 X51.628 Y49.421 E69.0064
G1 X51.327 Y49.523 E69.01697
G1 X51.035 Y49.654 E69.02762
G1 X50.759 Y49.815 E69.03825
G1 X50.501 Y50.002 E69.04884
G1 X50.262 Y50.212 E69.05943
G1 X50.045 Y50.448 E69.07009
G1 X49.854 Y50.701 E69.08063
G1 X49.687 Y50.973 E69.09125
G1 X49.549 Y51.262 E69.1019
G1 X49.441 Y51.562 E69.11251
G1 X49.362 Y51.872 E69.12315
G1 X49.316 Y52.186 E69.1337
G1 X49.3 Y52.505 E69.14432
G1 X49.316 Y52.825 E69.15498
