;FLAVOR:Marlin
;TIME:21927
;Filament used: 17.9553m
;Layer height: 0.2
;MINX:31.5
;MINY:31.5
;MINZ:0.2
;MAXX:203.5
;MAXY:203.5
;MAXZ:5
;Generated with Cura_SteamEngine master
M140 S50
M105
M190 S50
M104 S200
M105
M109 S200
M82 ;absolute extrusion mode
; Ender 3 Custom Start G-code
G92 E0 ; Reset Extruder
G28 ; Home all axes
G1 Z2.0 F3000 ; Move Z Axis up little to prevent scratching of Heat Bed
G1 X0.1 Y20 Z0.3 F5000.0 ; Move to start position
G1 X0.1 Y200.0 Z0.3 F1500.0 E15 ; Draw the first line
G1 X0.4 Y200.0 Z0.3 F5000.0 ; Move to side a little
G1 X0.4 Y20 Z0.3 F1500.0 E30 ; Draw the second line
G92 E0 ; Reset Extruder
G1 Z2.0 F3000 ; Move Z Axis up little to prevent scratching of Heat Bed
G1 X5 Y20 Z0.3 F5000.0 ; Move over to prevent blob squish
G92 E0
G92 E0
G1 F2700 E-5
;LAYER_COUNT:25
;LAYER:0
M107
G0 F6000 X34.698 Y34.764 Z0.2
;TYPE:SKIRT
G1 F2700 E0
G1 F1200 X35.386 Y34.127 E0.03119
G1 X36.126 Y33.551 E0.06237
G1 X36.912 Y33.039 E0.09357
G1 X37.739 Y32.597 E0.12476
G1 X38.601 Y32.227 E0.15596
G1 X39.491 Y31.931 E0.18716
G1 X40.403 Y31.713 E0.21835
G1 X41.33 Y31.572 E0.24953
G1 X42.201 Y31.513 E0.27857
G1 X42.522 Y31.504 E0.28925
G1 X42.83 Y31.5 E0.29949
G1 X191.793 Y31.5 E5.25402
G1 X192.649 Y31.511 E5.2825
G1 X193.585 Y31.565 E5.31368
G1 X194.513 Y31.697 E5.34486
G1 X195.427 Y31.909 E5.37606
G1 X196.319 Y32.198 E5.40725
G1 X197.184 Y32.561 E5.43845
G1 X198.014 Y32.997 E5.46963
G1 X198.805 Y33.502 E5.50085
G1 X199.549 Y34.073 E5.53204
G1 X200.242 Y34.705 E5.56323
G1 X200.879 Y35.393 E5.59442
G1 X201.454 Y36.134 E5.62562
G1 X201.965 Y36.92 E5.6568
G1 X202.407 Y37.748 E5.68801
G1 X202.776 Y38.61 E5.7192
G1 X203.071 Y39.5 E5.75039
G1 X203.289 Y40.412 E5.78157
G1 X203.429 Y41.34 E5.81279
G1 X203.487 Y42.201 E5.84149
G1 X203.496 Y42.521 E5.85214
G1 X203.5 Y42.83 E5.86242
G1 X203.499 Y191.9 E10.8205
G1 X203.49 Y192.627 E10.84469
G1 X203.439 Y193.564 E10.8759
G1 X203.307 Y194.492 E10.90707
G1 X203.098 Y195.406 E10.93826
G1 X202.811 Y196.299 E10.96946
G1 X202.449 Y197.165 E11.00067
G1 X202.015 Y197.996 E11.03186
G1 X201.511 Y198.787 E11.06305
G1 X200.942 Y199.532 E11.09423
G1 X200.311 Y200.227 E11.12545
G1 X199.624 Y200.865 E11.15664
G1 X198.885 Y201.442 E11.18782
G1 X198.099 Y201.954 E11.21902
G1 X197.273 Y202.397 E11.25019
G1 X196.411 Y202.769 E11.28142
G1 X195.522 Y203.065 E11.31258
G1 X194.61 Y203.285 E11.34379
G1 X193.683 Y203.426 E11.37497
G1 X192.799 Y203.487 E11.40445
G1 X192.478 Y203.496 E11.41513
G1 X192.17 Y203.5 E11.42537
G1 X43.065 Y203.499 E16.38462
G1 X42.367 Y203.49 E16.40784
G1 X41.431 Y203.438 E16.43902
G1 X40.502 Y203.306 E16.47023
G1 X39.588 Y203.096 E16.50142
G1 X38.695 Y202.809 E16.53262
G1 X37.83 Y202.446 E16.56382
G1 X36.999 Y202.012 E16.595
G1 X36.208 Y201.508 E16.6262
G1 X35.463 Y200.938 E16.6574
G1 X34.769 Y200.307 E16.68859
G1 X34.132 Y199.62 E16.71975
G1 X33.555 Y198.88 E16.75096
G1 X33.043 Y198.094 E16.78216
G1 X32.6 Y197.267 E16.81337
G1 X32.229 Y196.406 E16.84455
G1 X31.933 Y195.516 E16.87575
G1 X31.714 Y194.604 E16.90694
G1 X31.573 Y193.677 E16.93813
G1 X31.513 Y192.788 E16.96776
G1 X31.504 Y192.455 E16.97884
G1 X31.5 Y192.158 E16.98872
G1 X31.501 Y43.025 E21.94891
G1 X31.51 Y42.36 E21.97103
G1 X31.563 Y41.424 E22.00221
G1 X31.695 Y40.495 E22.03342
G1 X31.906 Y39.581 E22.06462
G1 X32.194 Y38.689 E22.09579
G1 X32.557 Y37.824 E22.12699
G1 X32.992 Y36.993 E22.15819
G1 X33.496 Y36.203 E22.18936
G1 X34.066 Y35.458 E22.22056
G1 X34.698 Y34.764 E22.25178
G0 F6000 X35.089 Y34.939
G1 F1200 X35.774 Y34.323 E22.28242
G1 X36.51 Y33.77 E22.31304
G1 X37.291 Y33.282 E22.34367
G1 X38.111 Y32.864 E22.37428
G1 X38.965 Y32.519 E22.40491
G1 X39.845 Y32.249 E22.43553
G1 X40.745 Y32.057 E22.46614
G1 X41.659 Y31.943 E22.49677
G1 X42.212 Y31.913 E22.51519
G1 X42.533 Y31.904 E22.52587
G1 X42.83 Y31.9 E22.53575
G1 X191.793 Y31.9 E27.49028
G1 X192.643 Y31.911 E27.51855
G1 X193.562 Y31.964 E27.54917
G1 X194.473 Y32.097 E27.57979
G1 X195.369 Y32.308 E27.61041
G1 X196.243 Y32.596 E27.64102
G1 X197.09 Y32.959 E27.67166
G1 X197.901 Y33.394 E27.70227
G1 X198.671 Y33.898 E27.73288
G1 X199.395 Y34.467 E27.76351
G1 X200.067 Y35.097 E27.79415
G1 X200.682 Y35.782 E27.82477
G1 X201.235 Y36.518 E27.85538
G1 X201.722 Y37.299 E27.886
G1 X202.139 Y38.12 E27.91662
G1 X202.484 Y38.974 E27.94726
G1 X202.753 Y39.854 E27.97786
G1 X202.945 Y40.755 E28.0085
G1 X203.058 Y41.668 E28.0391
G1 X203.087 Y42.212 E28.05722
G1 X203.096 Y42.532 E28.06787
G1 X203.1 Y42.83 E28.07778
G1 X203.099 Y191.895 E33.0357
G1 X203.09 Y192.622 E33.05989
G1 X203.039 Y193.541 E33.0905
G1 X202.908 Y194.453 E33.12114
G1 X202.698 Y195.349 E33.15175
G1 X202.412 Y196.224 E33.18237
G1 X202.051 Y197.071 E33.21299
G1 X201.617 Y197.883 E33.24362
G1 X201.115 Y198.655 E33.27424
G1 X200.547 Y199.38 E33.30488
G1 X199.919 Y200.053 E33.33549
G1 X199.235 Y200.669 E33.36611
G1 X198.5 Y201.223 E33.39672
G1 X197.72 Y201.712 E33.42734
G1 X196.9 Y202.131 E33.45797
G1 X196.047 Y202.477 E33.48858
G1 X195.167 Y202.748 E33.51921
G1 X194.267 Y202.941 E33.54982
G1 X193.353 Y203.056 E33.58046
G1 X192.788 Y203.087 E33.59928
G1 X192.467 Y203.096 E33.60996
G1 X192.17 Y203.1 E33.61984
G1 X43.07 Y203.099 E38.57893
G1 X42.372 Y203.09 E38.60215
G1 X41.453 Y203.038 E38.63276
G1 X40.542 Y202.907 E38.66337
G1 X39.646 Y202.697 E38.69398
G1 X38.771 Y202.41 E38.72461
G1 X37.924 Y202.048 E38.75525
G1 X37.112 Y201.614 E38.78587
G1 X36.341 Y201.112 E38.81647
G1 X35.616 Y200.544 E38.8471
G1 X34.943 Y199.915 E38.87774
G1 X34.328 Y199.231 E38.90833
G1 X33.774 Y198.496 E38.93895
G1 X33.286 Y197.715 E38.96958
G1 X32.867 Y196.895 E39.00021
G1 X32.521 Y196.042 E39.03082
G1 X32.251 Y195.162 E39.06144
G1 X32.058 Y194.261 E39.09208
G1 X31.944 Y193.348 E39.12269
G1 X31.913 Y192.777 E39.14171
G1 X31.904 Y192.444 E39.15279
G1 X31.9 Y192.158 E39.1623
G1 X31.901 Y43.031 E44.12228
G1 X31.91 Y42.366 E44.1444
G1 X31.962 Y41.446 E44.17505
G1 X32.094 Y40.535 E44.20567
G1 X32.305 Y39.639 E44.23628
G1 X32.592 Y38.764 E44.26691
G1 X32.955 Y37.918 E44.29753
G1 X33.389 Y37.106 E44.32815
G1 X33.892 Y36.335 E44.35877
G1 X34.461 Y35.611 E44.3894
G1 X35.089 Y34.939 E44.41999
G0 F6000 X35.481 Y35.117
G1 F1200 X36.162 Y34.524 E44.45002
G1 X36.894 Y33.994 E44.48008
G1 X37.669 Y33.531 E44.51011
G1 X38.482 Y33.138 E44.54014
G1 X39.327 Y32.818 E44.5702
G1 X40.196 Y32.575 E44.60021
G1 X41.084 Y32.409 E44.63025
G1 X42.223 Y32.313 E44.66827
G1 X42.544 Y32.304 E44.67895
G1 X42.83 Y32.3 E44.68847
G1 X191.793 Y32.3 E49.643
G1 X192.637 Y32.311 E49.67107
G1 X193.539 Y32.364 E49.70112
G1 X194.432 Y32.496 E49.73115
G1 X195.31 Y32.707 E49.76118
G1 X196.166 Y32.995 E49.79122
G1 X196.993 Y33.357 E49.82124
G1 X197.785 Y33.792 E49.8513
G1 X198.536 Y34.294 E49.88134
G1 X199.239 Y34.861 E49.91138
G1 X199.889 Y35.488 E49.94142
G1 X200.481 Y36.17 E49.97146
G1 X201.011 Y36.901 E50.00149
G1 X201.473 Y37.677 E50.03153
G1 X201.866 Y38.49 E50.06156
G1 X202.184 Y39.335 E50.09159
G1 X202.427 Y40.205 E50.12163
G1 X202.592 Y41.093 E50.15167
G1 X202.687 Y42.223 E50.18939
G1 X202.696 Y42.543 E50.20004
G1 X202.7 Y42.83 E50.20958
G1 X202.699 Y191.89 E55.16734
G1 X202.69 Y192.617 E55.19152
G1 X202.639 Y193.519 E55.22157
G1 X202.508 Y194.413 E55.25162
G1 X202.299 Y195.291 E55.28164
G1 X202.013 Y196.148 E55.31169
G1 X201.652 Y196.976 E55.34173
G1 X201.22 Y197.768 E55.37174
G1 X200.719 Y198.52 E55.40179
G1 X200.153 Y199.224 E55.43184
G1 X199.528 Y199.875 E55.46185
G1 X198.847 Y200.469 E55.49191
G1 X198.116 Y201 E55.52196
G1 X197.342 Y201.464 E55.55197
G1 X196.529 Y201.858 E55.58202
G1 X195.685 Y202.178 E55.61204
G1 X194.815 Y202.423 E55.64211
G1 X193.928 Y202.589 E55.67212
G1 X192.777 Y202.687 E55.71054
G1 X192.456 Y202.696 E55.72122
G1 X192.17 Y202.7 E55.73074
G1 X43.075 Y202.699 E60.68966
G1 X42.377 Y202.69 E60.71287
G1 X41.476 Y202.639 E60.74289
G1 X40.582 Y202.507 E60.77295
G1 X39.704 Y202.298 E60.80296
G1 X38.847 Y202.011 E60.83302
G1 X38.02 Y201.65 E60.86304
G1 X37.227 Y201.217 E60.89309
G1 X36.476 Y200.716 E60.92311
G1 X35.772 Y200.15 E60.95316
G1 X35.121 Y199.524 E60.9832
G1 X34.528 Y198.843 E61.01323
G1 X33.998 Y198.112 E61.04326
G1 X33.534 Y197.337 E61.0733
G1 X33.14 Y196.524 E61.10335
G1 X32.82 Y195.68 E61.13337
G1 X32.576 Y194.81 E61.16343
G1 X32.41 Y193.922 E61.19347
G1 X32.313 Y192.767 E61.23202
G1 X32.304 Y192.434 E61.2431
G1 X32.3 Y192.158 E61.25229
G1 X32.301 Y43.036 E66.2121
G1 X32.31 Y42.371 E66.23422
G1 X32.362 Y41.469 E66.26427
G1 X32.494 Y40.576 E66.2943
G1 X32.704 Y39.698 E66.32432
G1 X32.991 Y38.841 E66.35438
G1 X33.353 Y38.014 E66.38441
G1 X33.786 Y37.222 E66.41443
G1 X34.288 Y36.471 E66.44448
G1 X34.855 Y35.767 E66.47454
G1 X35.481 Y35.117 E66.50456
G1 F2700 E61.50456
;MESH:tor-bottom-01.stl
G0 F6000 X43.31 Y41.835
G0 X43.31 Y43.31
G0 X191.718 Y43.282
G0 X191.9 Y191.9
;TYPE:WALL-INNER
G1 F2700 E66.50456
G1 F1200 X43.1 Y191.9 E71.45366
G1 X43.1 Y43.1 E76.40277
G1 X191.9 Y43.1 E81.35188
G1 X191.9 Y191.9 E86.30099
G0 F6000 X192.3 Y192.3
;TYPE:WALL-OUTER
G1 F1200 X42.7 Y192.3 E91.2767
G1 X42.7 Y42.7 E96.25242
G1 X192.3 Y42.7 E101.22814
G1 X192.3 Y192.3 E106.20385
G0 F6000 X192.03 Y192.03
G0 X191.79 Y191.51
G0 X191.51 Y191.51
;TYPE:SKIN
G1 F1200 X43.49 Y191.51 E111.12702
G1 X43.49 Y43.49 E116.05018
G1 X191.51 Y43.49 E120.97335
G1 X191.51 Y191.51 E125.89651
G1 F2700 E120.89651
G0 F6000 X191.79 Y191.51
G0 X191.79 Y44.271
G1 F2700 E125.89651
G0 F6000 X191.349 Y44.271
G1 F1200 X190.728 Y43.65 E125.92572
G0 F6000 X190.162 Y43.65
G1 F1200 X191.349 Y44.836 E125.98153
G0 F6000 X191.349 Y45.402
G1 F1200 X189.597 Y43.65 E126.06394
G0 F6000 X189.031 Y43.65
G1 F1200 X191.349 Y45.968 E126.17297
G0 F6000 X191.349 Y46.533
G1 F1200 X188.465 Y43.65 E126.3086
G0 F6000 X187.9 Y43.65
G1 F1200 X191.349 Y47.099 E126.47084
G0 F6000 X191.349 Y47.665
G1 F1200 X187.334 Y43.65 E126.65969
G0 F6000 X186.768 Y43.65
G1 F1200 X191.349 Y48.231 E126.87516
G0 F6000 X191.349 Y48.796
G1 F1200 X186.203 Y43.65 E127.11722
G0 F6000 X185.637 Y43.65
G1 F1200 X191.349 Y49.362 E127.38589
G0 F6000 X191.349 Y49.928
G1 F1200 X185.071 Y43.65 E127.68119
G0 F6000 X184.506 Y43.65
G1 F1200 X191.349 Y50.493 E128.00306
G0 F6000 X191.349 Y51.059
G1 F1200 X183.94 Y43.65 E128.35156
G0 F6000 X183.374 Y43.65
G1 F1200 X191.349 Y51.625 E128.72668
G0 F6000 X191.349 Y52.19
G1 F1200 X182.809 Y43.65 E129.12837
G0 F6000 X182.243 Y43.65
G1 F1200 X191.349 Y52.756 E129.55669
G0 F6000 X191.349 Y53.322
G1 F1200 X181.677 Y43.65 E130.01163
G0 F6000 X181.111 Y43.65
G1 F1200 X191.349 Y53.887 E130.49318
G0 F6000 X191.349 Y54.453
G1 F1200 X180.546 Y43.65 E131.00132
G0 F6000 X179.98 Y43.65
G1 F1200 X191.349 Y55.019 E131.53608
G0 F6000 X191.349 Y55.584
G1 F1200 X179.414 Y43.65 E132.09744
G0 F6000 X178.849 Y43.65
G1 F1200 X191.349 Y56.15 E132.6854
G0 F6000 X191.349 Y56.716
G1 F1200 X178.283 Y43.65 E133.29999
G0 F6000 X177.717 Y43.65
G1 F1200 X191.349 Y57.282 E133.94119
G0 F6000 X191.349 Y57.847
G1 F1200 X177.152 Y43.65 E134.60898
G0 F6000 X176.586 Y43.65
G1 F1200 X191.349 Y58.413 E135.30338
G0 F6000 X191.349 Y58.979
G1 F1200 X176.02 Y43.65 E136.02441
G0 F6000 X175.455 Y43.65
G1 F1200 X191.349 Y59.544 E136.77202
G0 F6000 X191.349 Y60.11
G1 F1200 X174.889 Y43.65 E137.54625
G0 F6000 X174.323 Y43.65
G1 F1200 X191.349 Y60.676 E138.3471
G0 F6000 X191.349 Y61.241
G1 F1200 X173.758 Y43.65 E139.17452
G0 F6000 X173.192 Y43.65
G1 F1200 X191.349 Y61.807 E140.02857
G0 F6000 X191.349 Y62.373
G1 F1200 X172.626 Y43.65 E140.90925
G0 F6000 X172.061 Y43.65
G1 F1200 X191.349 Y62.938 E141.81649
G0 F6000 X191.349 Y63.504
G1 F1200 X171.495 Y43.65 E142.75037
G0 F6000 X170.929 Y43.65
G1 F1200 X191.349 Y64.07 E143.71086
G0 F6000 X191.349 Y64.635
G1 F1200 X170.363 Y43.65 E144.69795
G0 F6000 X169.798 Y43.65
G1 F1200 X191.349 Y65.201 E145.71165
G0 F6000 X191.349 Y65.767
G1 F1200 X169.232 Y43.65 E146.75196
G0 F6000 X168.666 Y43.65
G1 F1200 X191.349 Y66.332 E147.81888
G0 F6000 X191.349 Y66.898
G1 F1200 X168.101 Y43.65 E148.91239
G0 F6000 X167.535 Y43.65
G1 F1200 X191.349 Y67.464 E150.03253
G0 F6000 X191.349 Y68.03
G1 F1200 X166.969 Y43.65 E151.17929
G0 F6000 X166.404 Y43.65
G1 F1200 X191.349 Y68.595 E152.35263
G0 F6000 X191.349 Y69.161
G1 F1200 X165.838 Y43.65 E153.55259
G0 F6000 X165.272 Y43.65
G1 F1200 X191.349 Y69.727 E154.77917
G0 F6000 X191.349 Y70.292
G1 F1200 X164.707 Y43.65 E156.03233
G0 F6000 X164.141 Y43.65
G1 F1200 X191.349 Y70.858 E157.31211
G0 F6000 X191.349 Y71.424
G1 F1200 X163.575 Y43.65 E158.61851
G0 F6000 X163.01 Y43.65
G1 F1200 X191.349 Y71.989 E159.95149
G0 F6000 X191.349 Y72.555
G1 F1200 X162.444 Y43.65 E161.31109
G0 F6000 X161.878 Y43.65
G1 F1200 X191.349 Y73.121 E162.69732
G0 F6000 X191.349 Y73.686
G1 F1200 X161.312 Y43.65 E164.11014
G0 F6000 X160.747 Y43.65
G1 F1200 X191.349 Y74.252 E165.54957
G0 F6000 X191.349 Y74.818
G1 F1200 X160.181 Y43.65 E167.01561
G0 F6000 X159.615 Y43.65
G1 F1200 X191.349 Y75.383 E168.50826
G0 F6000 X191.349 Y75.949
G1 F1200 X159.05 Y43.65 E170.02751
G0 F6000 X158.484 Y43.65
G1 F1200 X191.349 Y76.515 E171.57338
G0 F6000 X191.349 Y77.081
G1 F1200 X157.918 Y43.65 E173.14587
G0 F6000 X157.353 Y43.65
G1 F1200 X191.349 Y77.646 E174.74493
G0 F6000 X191.349 Y78.212
G1 F1200 X156.787 Y43.65 E176.37063
G0 F6000 X156.221 Y43.65
G1 F1200 X191.349 Y78.778 E178.02294
G0 F6000 X191.349 Y79.343
G1 F1200 X155.656 Y43.65 E179.70183
G0 F6000 X155.09 Y43.65
G1 F1200 X191.349 Y79.909 E181.40734
G0 F6000 X191.349 Y80.475
G1 F1200 X154.524 Y43.65 E183.13948
G0 F6000 X153.959 Y43.65
G1 F1200 X191.349 Y81.04 E184.89819
G0 F6000 X191.349 Y81.606
G1 F1200 X153.393 Y43.65 E186.68352
G0 F6000 X152.827 Y43.65
G1 F1200 X191.349 Y82.172 E188.49548
G0 F6000 X191.349 Y82.737
G1 F1200 X152.262 Y43.65 E190.33401
G0 F6000 X151.696 Y43.65
G1 F1200 X191.349 Y83.303 E192.19916
G0 F6000 X191.349 Y83.869
G1 F1200 X151.13 Y43.65 E194.09094
G0 F6000 X150.564 Y43.65
G1 F1200 X191.349 Y84.434 E196.00932
G0 F6000 X191.349 Y85
G1 F1200 X149.999 Y43.65 E197.9543
G0 F6000 X149.433 Y43.65
G1 F1200 X191.349 Y85.566 E199.9259
G0 F6000 X191.349 Y86.131
G1 F1200 X148.867 Y43.65 E201.9241
G0 F6000 X148.302 Y43.65
G1 F1200 X191.349 Y86.697 E203.9489
G0 F6000 X191.349 Y87.263
G1 F1200 X147.736 Y43.65 E206.00032
G0 F6000 X147.17 Y43.65
G1 F1200 X191.349 Y87.829 E208.07836
G0 F6000 X191.349 Y88.394
G1 F1200 X146.605 Y43.65 E210.18298
G0 F6000 X146.039 Y43.65
G1 F1200 X191.349 Y88.96 E212.31423
G0 F6000 X191.349 Y89.526
G1 F1200 X145.473 Y43.65 E214.47209
G0 F6000 X144.908 Y43.65
G1 F1200 X191.349 Y90.091 E216.65654
G0 F6000 X191.349 Y90.657
G1 F1200 X144.342 Y43.65 E218.8676
G0 F6000 X143.776 Y43.65
G1 F1200 X191.349 Y91.223 E221.10529
G0 F6000 X191.349 Y91.788
G1 F1200 X143.211 Y43.65 E223.36955
G0 F6000 X142.645 Y43.65
G1 F1200 X191.349 Y92.354 E225.66044
G0 F6000 X191.349 Y92.92
G1 F1200 X142.079 Y43.65 E227.97795
G0 F6000 X141.513 Y43.65
G1 F1200 X191.349 Y93.485 E230.32206
G0 F6000 X191.349 Y94.051
G1 F1200 X140.948 Y43.65 E232.69277
G0 F6000 X140.382 Y43.65
G1 F1200 X191.349 Y94.617 E235.0901
G0 F6000 X191.349 Y95.182
G1 F1200 X139.816 Y43.65 E237.51403
G0 F6000 X139.251 Y43.65
G1 F1200 X191.349 Y95.748 E239.96456
G0 F6000 X191.349 Y96.314
G1 F1200 X138.685 Y43.65 E242.44171
G0 F6000 X138.119 Y43.65
G1 F1200 X191.349 Y96.879 E244.94547
G0 F6000 X191.349 Y97.445
G1 F1200 X137.554 Y43.65 E247.47582
G0 F6000 X136.988 Y43.65
G1 F1200 X191.349 Y98.011 E250.03279
G0 F6000 X191.349 Y98.577
G1 F1200 X136.422 Y43.65 E252.61639
G0 F6000 X135.857 Y43.65
G1 F1200 X191.349 Y99.142 E255.22656
G0 F6000 X191.349 Y99.708
G1 F1200 X135.291 Y43.65 E257.86336
G0 F6000 X134.725 Y43.65
G1 F1200 X191.349 Y100.274 E260.52678
G0 F6000 X191.349 Y100.839
G1 F1200 X134.16 Y43.65 E263.21677
G0 F6000 X133.594 Y43.65
G1 F1200 X191.349 Y101.405 E265.93339
G0 F6000 X191.349 Y101.971
G1 F1200 X133.028 Y43.65 E268.67663
G0 F6000 X132.463 Y43.65
G1 F1200 X191.349 Y102.536 E271.44645
G0 F6000 X191.349 Y103.102
G1 F1200 X131.897 Y43.65 E274.24289
G0 F6000 X131.331 Y43.65
G1 F1200 X191.349 Y103.668 E277.06595
G0 F6000 X191.349 Y104.233
G1 F1200 X130.765 Y43.65 E279.91562
G0 F6000 X130.2 Y43.65
G1 F1200 X191.349 Y104.799 E282.79188
G0 F6000 X191.349 Y105.365
